X:78
T:Dysmal
Z:Jack Campin - http://www.campin.me.uk
S:Blaikie MS (NLS MS.1578) p23, Blaikie #72
M:2/4
L:1/16
V:1 midi program 1 74
V:2 midi program 1 46 bass middle = d transpose -24
Q:1/8=90
N:sharp pencilled in before the last F in each part
K:G Minor
[V:1] B2|G3`F DCDF|d2dd F2`BA|G2GF DCDF|G4   z2
[V:2] z2|G4   g4  |b4   f2^f2|g4   d4  |G2g2`G2
%
[V:1] B2|G3`F DCDF|Gdd2 F2`BA|G2GF DCDF|G6     ||
[V:2] z2|G4   g4  |b4   f2^f2|g4   d4  |G4   g2||
%
[V:1] GA|B2AG c2Bc|dAAG D2`GA|B2B2`c2f2|d4   z2
[V:2] z2|g4   e4  |d4   d2 z2|g4   f2A2|B2b2`B2
%
[V:1] GA|B2AG c2Bc|dcBG F2`BA|G3`F DCDF|G6     |]
[V:2] z2|g4   f4  |b4   a2^f2|g4   d4  |G4   g2|]
W:Transcription (c) Jack Campin 2009, no mirroring or republication without permission

